X: 111103
Q: "Strathspey."
M: C
L: 1/16
K: G
uG |:\
vG3vD (EG3) (BA3) B4 | vd3ue Bg3 {B}A3G E4 |\
(d2ef) (g3f) (e2d2) B4 | vd3ue Bg3 (AG3) E4 |
(d2ef) (g3f) e2d2 Bg3 | GG3 B3G A4 G4 |\
(d2ef) (g3f) (e2d2) B4 | d3e Bg3 {B}A2G2 E4 |\
gb3 e3g d3e Bg3 | GG3 B3G A4 G4 |]


